X:1
T:Title
%%score { 1 | 2 }
L:1/8
M:3/4
K:Db
V:1 treble nm="Grand Piano"
V:2 bass 
V:1
 z2 z2[Q:1/4=100] [DF][EG] | [FA][FA] [FB]2 [DF]2 | [FA][EG] [EG]2 [CE][DF] | %3
 [EG][EG] [CA]2 [CE]2 |[M:2/4] [EG]F F2 |[M:1/4] A2 |[M:3/4] BB B2 [Gc]2 | [Fd][FA] [FA]2 [FB]2 | %8
 cc c2 B2 |[M:2/4] A4 |[M:1/4] A2 |[M:3/4] [Fd][Fd] [Fd]2 [DAc]2 | [DAc][DGB] [DGB]2 [=DAB]2 | %13
 [E=Ge][EGe] [EGe]2 [EBd]2 |[M:2/4] [EBd][EAc] [EAc]2 |[M:1/4] [EAc]2 | %16
[M:3/4] [DAd][DAd] [DAd]2 [Af]2 | eB B2 d2 | A2 d2 [Ec]2 |[M:2/4] [Fd]4 |] %20
V:2
 z2 z2 [D,A,]2 | [D,D][D,D] [D,D]2 [D,A,]2 | [A,,A,][A,,A,] [A,,A,]2 [A,,A,]2 | %3
 [A,,A,][A,,A,] [A,,E,]2 [A,,A,]2 |[M:2/4] [C,A,][D,A,D] [D,A,D]2 |[M:1/4] [D,F,D]2 | %6
[M:3/4] [G,D][G,D] [G,D]2 [E,A,]2 | [D,A,][D,D] [D,D]2 [D,A,]2 | %8
 [E,A,E][E,A,E] [E,A,E]2 [E,=G,D]2 |[M:2/4][K:treble] [A,C]4 |[M:1/4] [A,G]2 | %11
[M:3/4][K:bass] [D,A,][D,A,] [D,A,]2 F,2 | G,G, G,2 F,2 | E,E, E,2 =G,2 |[M:2/4] A,A, A,2 | %15
[M:1/4] G,2 |[M:3/4] F,F, F,2 [D,D]2 | [G,B,G][G,DG] [G,DG]2 [=G,B,_F]2 | %18
 [A,DF]2 [A,F]2[K:bass] [A,,A,]2 |[M:2/4] [D,A,]4 |] %20

